public/svg_assets/searchIcon.svg

<svg width="290" height="290" viewBox="0 0 290 290" fill="none" xmlns="http://www.w3.org/2000/svg">
<path d="M212.159 186.789H198.797L194.061 182.222C214.358 158.543 224.844 126.237 219.093 91.902C211.144 44.8814 171.904 7.33258 124.545 1.58186C52.9991 -7.21336 -7.21434 53.0001 1.58088 124.546C7.33161 171.905 44.8804 211.145 91.901 219.094C126.236 224.845 158.542 214.359 182.221 194.062L186.788 198.798V212.16L258.672 284.044C265.607 290.978 276.939 290.978 283.874 284.044C290.808 277.109 290.808 265.777 283.874 258.842L212.159 186.789ZM110.675 186.789C68.5599 186.789 34.563 152.792 34.563 110.676C34.563 68.5608 68.5599 34.5639 110.675 34.5639C152.791 34.5639 186.788 68.5608 186.788 110.676C186.788 152.792 152.791 186.789 110.675 186.789Z" fill="#626262"/>
</svg>

<svg width="290" height="290" fill="none" xmlns="http://www.w3.org/2000/svg">
    <path d="M212.159 186.789h-13.362l-4.736-4.567c20.297-23.679 30.783-55.985 25.032-90.32-7.949-47.02-47.189-84.57-94.548-90.32C52.999-7.213-7.215 53 1.581 124.546c5.75 47.359 43.3 86.599 90.32 94.548 34.335 5.751 66.641-4.735 90.32-25.032l4.567 4.736v13.362l71.884 71.884c6.935 6.934 18.267 6.934 25.202 0 6.934-6.935 6.934-18.267 0-25.202l-71.715-72.053Zm-101.484 0c-42.115 0-76.112-33.997-76.112-76.113 0-42.115 33.997-76.112 76.112-76.112 42.116 0 76.113 33.997 76.113 76.112 0 42.116-33.997 76.113-76.113 76.113Z" fill="#626262"/>
</svg>
